X:1
T: Tribute to Whelan and Ivers
R: reel
C: Rick Gagne
N: 1988 on tenor banjo
D: Dun Creagan: The 80s Live
Q: 1/4=175
M: 4/4
K: A
"D"afed "A"cA~A2 | "E"BABA "A"ceA2 | "D"afed "A"cA~A2 | "Bm"BcdB "E"c2Be |
"D"afed "A"cA~A2 | "E"BABA "A"ceA2 | "Bm"FAdf "A"ecae | "E"fece "A"A2ce :|
"D"fede "A"ce~e2 | "E"Befe "A"ceAe | "D"fede "A"ce~e2 | "C#m"cefe "D"a2ga |
"Bm"fede "A"ce~e2 | "E"Befe "D"ceA2 | "Bm"FAdf "A"ecae | "E"fece "A"A2ce :|
